packages/foundations/assets/icons/functional/images/notification/information_circle_28_filled.svg

<svg width="28" height="28" viewBox="0 0 28 28" fill="none" xmlns="http://www.w3.org/2000/svg">
<g clip-path="url(#clip0_2214_8088)">
<path fill-rule="evenodd" clip-rule="evenodd" d="M14 1.75C7.24609 1.75 1.75 7.24605 1.75 14C1.75 20.754 7.24609 26.25 14 26.25C20.7539 26.25 26.25 20.754 26.25 14C26.25 7.24605 20.7539 1.75 14 1.75ZM13.4758 11.4807L13.0156 11.5938H11.5938C11.1016 11.5938 10.7188 11.9766 10.7188 12.4688C10.7188 12.9609 11.1016 13.3438 11.5938 13.3438H13.125V18.375H11.375C10.8828 18.375 10.5 18.7578 10.5 19.25C10.5 19.7422 10.8828 20.125 11.375 20.125H16.625C17.1172 20.125 17.5 19.7422 17.5 19.25C17.5 18.7578 17.1172 18.375 16.625 18.375H14.875V12.25C14.875 11.7543 14.4861 11.3879 13.9971 11.3819C13.8374 11.38 13.6568 11.4362 13.4758 11.4807ZM13.8633 7.08208C13.1523 7.08208 12.5508 7.68355 12.5508 8.39458C12.5508 9.13281 13.1523 9.70708 13.8633 9.70708C14.6016 9.70708 15.1758 9.13281 15.1758 8.39458C15.1758 7.68355 14.6016 7.08208 13.8633 7.08208Z" fill="#1A1C1F"/>
</g>
<defs>
<clipPath id="clip0_2214_8088">
<rect width="28" height="28" fill="white"/>
</clipPath>
</defs>
</svg>

<svg xmlns="http://www.w3.org/2000/svg" width="28" height="28" fill="none"><g clip-path="url(#a)"><path fill="#1A1C1F" fill-rule="evenodd" d="M14 1.75C7.246 1.75 1.75 7.246 1.75 14S7.246 26.25 14 26.25 26.25 20.754 26.25 14 20.754 1.75 14 1.75m-.524 9.73-.46.114h-1.422a.864.864 0 0 0-.875.875c0 .492.383.875.875.875h1.531v5.031h-1.75a.864.864 0 0 0-.875.875c0 .492.383.875.875.875h5.25a.864.864 0 0 0 .875-.875.864.864 0 0 0-.875-.875h-1.75V12.25c0-.496-.389-.862-.878-.868-.16-.002-.34.054-.521.099m.387-4.398a1.33 1.33 0 0 0-1.312 1.313c0 .738.601 1.312 1.312 1.312.739 0 1.313-.574 1.313-1.312 0-.711-.574-1.313-1.313-1.313" clip-rule="evenodd"/></g><defs><clipPath id="a"><path fill="#fff" d="M0 0h28v28H0z"/></clipPath></defs></svg>
